X: 335
T: Bin Cân ile Sevdim Seni
C: Tanburî Büyük Osman Bey
O: Turkey
F: http://compmusic.upf.edu/node/140
N: rast--sarki--aksak--bin_can_ile--tanburi_buyuk_osman_bey
N: makam= rast
N: form= sarki
N: usul= aksak = 9/8
M: 9/8
L: 1/16
K: C _1/4B ^f  
Q: 1/4=198
%%MIDI tuningsystem comma53
G4 B4 z4 B2A2 G2 | A2 B2c4z4c2 B2A2  | \
w:  ARANAĞME  |   | 
B2c2 d2e2 d2c2 B3A G2 | 
w:   | 
A2 c2B2 A2G2 ^A2B4z2  | G4 B4 z4 B2A2 G2 | \
w:   |  ARANAĞME  | 
A2 B2c4z4c2 B2A2  | 
w:   | 
B2c2 d2e2 d2c2 B3A G2 | G2 c2B2 A2G2 F2G4z2  | \
w:   |   | 
G6A2 B2A2 c4 B2 | 
w:  Bin  *  cân_  | 
dc ded2 c2B3AG6  | d6e2 g2=f2 e4 d2 | \
w:  i *  *  *  *  *  le   |  sev *  dim   | 
dc ded2 c2B3AG4z2  | 
w:  se *  *  *  *  *  ni    | 
G6A2 B2A2 c4 B2 | dc ded2 c2B3AG6  | \
w:  Bin  *  cân_  |  i *  *  *  *  *  le   | 
d6e2 g2=f2 e4 d2 | 
w:  sev *  dim   | 
dc ded2 c2B3^AB4z2  | G8 a2g2 =f2e2 d2 | \
w:  se *  *  *  *  *  ni    |  Lûtf_ ey  | 
d2 =f2e2 d2d2 c2B3AG2  | 
w:  le  *  *  *  şâd_  | 
A6G2 d2c2 B4 A2 | AG ABA2 G2G4d4z2  | \
w:  et *  ben  |  de *  *  *  *  *  ni    | 
G8 a2g2 =f2e2 d2 | 
w:  Lûtf_ ey  | 
d2 =f2e2 d2d2 c2B3AG2  | A6G2 d2c2 B4 A2 | \
w:  le  *  *  *  şâd_  |  et *  ben  | 
AG ABA2 G2G8z2  | 
w:  de *  *  *  *  *  ni    | 
d8 ^c8 z2 | (3d2^c2d2(3e2d2e2(3f2e2f2g6  | \
w:  Sen sin   |  mü *  *  *  *  *  rüv  | 
d6e2 g2=f2 e4 d2 | dc ded2 c2B3AG4z2  | 
w:  vet  *  mâ  |  de *  *  *  *  *  ni    | 
d8 ^c8 z2 | (3d2^c2d2(3e2d2e2(3f2e2f2g6  | \
w:  Sen sin   |  mü *  *  *  *  *  rüv  | 
d6e2 g2=f2 e4 d2 | dc ded2 c2B3^AB4z2  | 
w:  vet  *  mâ  |  de *  *  *  *  *  ni    | 
G8 a2g2 =f2e2 d2 | d2 =f2e2 d2d2 c2B3AG2  | \
w:  Lûtf_ ey  |  le  *  *  *  şâd_  | 
A6G2 d2c2 B4 A2 | 
w:  et *  ben  | 
AG ABA2 G2G4d4z2  | G8 a2g2 =f2e2 d2 | \
w:  de *  *  *  *  *  ni    |  Lûtf_ ey  | 
d2 =f2e2 d2d2 c2B3AG2  | 
w:  le  *  *  *  şâd_  | 
A6G2 d2c2 B4 A2 | AG ABA2 G2G8z2  | |


